Disposable_Presets_LR/35mm/35mm.lrtemplate
s = { 
  id = "",
  internalName = "35mm",
  title = "35mm",
  type = "Develop",
  value = { 
    settings = {
			GradientBasedCorrections = {
				{
					CorrectionActive = true,
					CorrectionAmount = 1,
					CorrectionID = "47F673A9-6470-434B-98FD-FCABE60901D3",
					CorrectionMasks = {
						{
							FullX = 0.000000,
							FullY = 0.000000,
							MaskID = "48ECCC80-95FE-4C67-A393-4996059CFA16",
							MaskValue = 1,
							What = "Mask/Gradient",
							ZeroX = 0.000000,
							ZeroY = 0.000000,
						},
					},
					CorrectionRangeMask = {
						ColorAmount = 0.000000,
						LumFeather = 0.000000,
						LumMax = 1,
						LumMin = 0,
						Type = 0,
						Version = 2,
					},
					CorrectionReferenceX = 0.000000,
					CorrectionReferenceY = 0.000000,
					LocalBrightness = 0,
					LocalClarity = 0,
					LocalClarity2012 = 0,
					LocalContrast = 0,
					LocalContrast2012 = 0.000000,
					LocalExposure = 0,
					LocalExposure2012 = 0.000000,
					LocalHighlights2012 = 0.000000,
					LocalLuminanceNoise = 0,
					LocalMoire = 0,
					LocalSaturation = 0,
					LocalShadows2012 = 0.000000,
					LocalSharpness = 0,
					LocalTemperature = 0.000000,
					LocalTint = 0,
					LocalToningHue = 0,
					LocalToningSaturation = 0,
					LocalWhites2012 = 0.000000,
					What = "Correction",
				},
			},

			CircularGradientBasedCorrections = {
				{
					CorrectionActive = true,
					CorrectionAmount = 1,
					CorrectionID = "FDFA3DE5-7EDE-4193-948A-5DBD62DD98CD",
					CorrectionMasks = {
						{
							Angle = 0,
							Bottom = 0.000000,
							Feather = 0,
							Flipped = true,
							Left = 0.000000,
							MaskID = "49542C7F-6A62-4F02-81E3-72271ADC945E",
							MaskValue = 1,
							Midpoint = 50,
							Right = 0.000000,
							Roundness = 0,
							Top = 0.000000,
							Version = 2,
							What = "Mask/CircularGradient",
						},
					},
					CorrectionRangeMask = {
						ColorAmount = 0.000000,
						LumFeather = 0.000000,
						LumMax = 1,
						LumMin = 0,
						Type = 0,
						Version = 2,
					},
					CorrectionReferenceX = 0.000000,
					CorrectionReferenceY = 0.000000,
					LocalBlacks2012 = 0,
					LocalBrightness = 0,
					LocalClarity = 0,
					LocalClarity2012 = 0.000000,
					LocalContrast = 0,
					LocalContrast2012 = 0.000000,
					LocalDefringe = 0,
					LocalDehaze = 0.000000,
					LocalExposure = 0,
					LocalExposure2012 = 0.000000,
					LocalHighlights2012 = 0.000000,
					LocalLuminanceNoise = 0,
					LocalMoire = 0,
					LocalSaturation = 0,
					LocalShadows2012 = 0.000000,
					LocalSharpness = 0,
					LocalTemperature = 0,
					LocalTint = 0,
					LocalToningHue = 0,
					LocalToningSaturation = 0,
					LocalWhites2012 = 0,
					What = "Correction",
				},
			},

   PresetType="Normal",
   Cluster="",
   SupportsAmount=false,
   SupportsColor=true,
   SupportsMonochrome=true,
   SupportsHighDynamicRange=true,
   SupportsNormalDynamicRange=true,
   SupportsSceneReferred=true,
   SupportsOutputReferred=true,
   ProcessVersion = "10.0",
   WhiteBalance="Custom",
   IncrementalTemperature=3,
   IncrementalTint=-10,
   Exposure2012=-0.06,
   Contrast2012=15,
   Highlights2012=-37,
   Shadows2012=60,
   Whites2012=-30,
   Blacks2012=55,
   Texture=15,
   Clarity2012=5,
   Dehaze=8,
   Vibrance=26,
   Saturation=-18,
   ParametricShadows=0,
   ParametricDarks=0,
   ParametricLights=0,
   ParametricHighlights=0,
   ParametricShadowSplit=25,
   ParametricMidtoneSplit=50,
   ParametricHighlightSplit=75,
   Sharpness=0,
   LuminanceSmoothing=8,
   LuminanceNoiseReductionDetail=50,
   LuminanceNoiseReductionContrast=0,
   ColorNoiseReduction=25,
   ColorNoiseReductionDetail=50,
   ColorNoiseReductionSmoothness=50,
   HueAdjustmentRed=-5,
   HueAdjustmentOrange=2,
   HueAdjustmentYellow=5,
   HueAdjustmentGreen=-34,
   HueAdjustmentAqua=33,
   HueAdjustmentBlue=-15,
   HueAdjustmentPurple=0,
   HueAdjustmentMagenta=-17,
   SaturationAdjustmentRed=-8,
   SaturationAdjustmentOrange=-32,
   SaturationAdjustmentYellow=18,
   SaturationAdjustmentGreen=-62,
   SaturationAdjustmentAqua=24,
   SaturationAdjustmentBlue=-1,
   SaturationAdjustmentPurple=-33,
   SaturationAdjustmentMagenta=-27,
   LuminanceAdjustmentRed=-28,
   LuminanceAdjustmentOrange=-8,
   LuminanceAdjustmentYellow=-18,
   LuminanceAdjustmentGreen=34,
   LuminanceAdjustmentAqua=60,
   LuminanceAdjustmentBlue=32,
   LuminanceAdjustmentPurple=-25,
   LuminanceAdjustmentMagenta=-24,
   SplitToningShadowHue=48,
   SplitToningShadowSaturation=17,
   SplitToningHighlightHue=184,
   SplitToningHighlightSaturation=5,
   SplitToningBalance=10,
   ColorGradeMidtoneHue=0,
   ColorGradeMidtoneSat=0,
   ColorGradeShadowLum=0,
   ColorGradeMidtoneLum=0,
   ColorGradeHighlightLum=0,
   ColorGradeBlending=100,
   ColorGradeGlobalHue=0,
   ColorGradeGlobalSat=0,
   ColorGradeGlobalLum=0,
   AutoLateralCA=1,
   LensProfileEnable=0,
   LensManualDistortionAmount=0,
   VignetteAmount=0,
   DefringePurpleAmount=0,
   DefringePurpleHueLo=30,
   DefringePurpleHueHi=70,
   DefringeGreenAmount=0,
   DefringeGreenHueLo=40,
   DefringeGreenHueHi=60,
   GrainAmount=44,
   GrainSize=34,
   GrainFrequency=46,
   PostCropVignetteAmount=0,
   ShadowTint=0,
   RedHue=47,
   RedSaturation=-10,
   GreenHue=72,
   GreenSaturation=-15,
   BlueHue=-20,
   BlueSaturation=-10,
   ConvertToGrayscale=false,
   OverrideLookVignette=false,
   ToneCurveName2012="Custom",
   CameraProfile="Default Color",
   HasSettings=true,
   ToneCurvePV2012 = {
     0,
      39,
     57,
      73,
     125,
      127,
     189,
      187,
     255,
      249,
   },
   ToneCurvePV2012Red = {
     0,
      0,
     39,
      9,
     89,
      60,
     127,
      120,
     197,
      206,
     255,
      255,
   },
   ToneCurvePV2012Green = {
     0,
      0,
     39,
      11,
     91,
      63,
     130,
      121,
     198,
      205,
     255,
      255,
   },
   ToneCurvePV2012Blue = {
     0,
      0,
     40,
      13,
     88,
      63,
     128,
      120,
     197,
      206,
     255,
      255,
   },
  
}

},version = 0,
}

