Disposable_Presets_LR/polaroid/Polaroid.lrtemplate
s = { 
  id = "",
  internalName = "Polaroid",
  title = "Polaroid",
  type = "Develop",
  value = { 
    settings = {
			GradientBasedCorrections = {
				{
					CorrectionActive = true,
					CorrectionAmount = 1,
					CorrectionID = "47F673A9-6470-434B-98FD-FCABE60901D3",
					CorrectionMasks = {
						{
							FullX = 0.000000,
							FullY = 0.000000,
							MaskID = "48ECCC80-95FE-4C67-A393-4996059CFA16",
							MaskValue = 1,
							What = "Mask/Gradient",
							ZeroX = 0.000000,
							ZeroY = 0.000000,
						},
					},
					CorrectionRangeMask = {
						ColorAmount = 0.000000,
						LumFeather = 0.000000,
						LumMax = 1,
						LumMin = 0,
						Type = 0,
						Version = 2,
					},
					CorrectionReferenceX = 0.000000,
					CorrectionReferenceY = 0.000000,
					LocalBrightness = 0,
					LocalClarity = 0,
					LocalClarity2012 = 0,
					LocalContrast = 0,
					LocalContrast2012 = 0.000000,
					LocalExposure = 0,
					LocalExposure2012 = 0.000000,
					LocalHighlights2012 = 0.000000,
					LocalLuminanceNoise = 0,
					LocalMoire = 0,
					LocalSaturation = 0,
					LocalShadows2012 = 0.000000,
					LocalSharpness = 0,
					LocalTemperature = 0.000000,
					LocalTint = 0,
					LocalToningHue = 0,
					LocalToningSaturation = 0,
					LocalWhites2012 = 0.000000,
					What = "Correction",
				},
			},

			CircularGradientBasedCorrections = {
				{
					CorrectionActive = true,
					CorrectionAmount = 1,
					CorrectionID = "FDFA3DE5-7EDE-4193-948A-5DBD62DD98CD",
					CorrectionMasks = {
						{
							Angle = 0,
							Bottom = 0.000000,
							Feather = 0,
							Flipped = true,
							Left = 0.000000,
							MaskID = "49542C7F-6A62-4F02-81E3-72271ADC945E",
							MaskValue = 1,
							Midpoint = 50,
							Right = 0.000000,
							Roundness = 0,
							Top = 0.000000,
							Version = 2,
							What = "Mask/CircularGradient",
						},
					},
					CorrectionRangeMask = {
						ColorAmount = 0.000000,
						LumFeather = 0.000000,
						LumMax = 1,
						LumMin = 0,
						Type = 0,
						Version = 2,
					},
					CorrectionReferenceX = 0.000000,
					CorrectionReferenceY = 0.000000,
					LocalBlacks2012 = 0,
					LocalBrightness = 0,
					LocalClarity = 0,
					LocalClarity2012 = 0.000000,
					LocalContrast = 0,
					LocalContrast2012 = 0.000000,
					LocalDefringe = 0,
					LocalDehaze = 0.000000,
					LocalExposure = 0,
					LocalExposure2012 = 0.000000,
					LocalHighlights2012 = 0.000000,
					LocalLuminanceNoise = 0,
					LocalMoire = 0,
					LocalSaturation = 0,
					LocalShadows2012 = 0.000000,
					LocalSharpness = 0,
					LocalTemperature = 0,
					LocalTint = 0,
					LocalToningHue = 0,
					LocalToningSaturation = 0,
					LocalWhites2012 = 0,
					What = "Correction",
				},
			},

   PresetType="Normal",
   Cluster="",
   SupportsAmount=false,
   SupportsColor=true,
   SupportsMonochrome=true,
   SupportsHighDynamicRange=true,
   SupportsNormalDynamicRange=true,
   SupportsSceneReferred=true,
   SupportsOutputReferred=true,
   ProcessVersion = "10.0",
   WhiteBalance="As Shot",
   IncrementalTemperature=0,
   IncrementalTint=0,
   Exposure2012=0.00,
   Contrast2012=15,
   Highlights2012=-40,
   Shadows2012=45,
   Whites2012=-10,
   Blacks2012=0,
   Texture=0,
   Clarity2012=-10,
   Dehaze=0,
   Vibrance=0,
   Saturation=-5,
   ParametricShadows=0,
   ParametricDarks=0,
   ParametricLights=0,
   ParametricHighlights=0,
   ParametricShadowSplit=25,
   ParametricMidtoneSplit=50,
   ParametricHighlightSplit=75,
   Sharpness=0,
   LuminanceSmoothing=0,
   ColorNoiseReduction=0,
   HueAdjustmentRed=-10,
   HueAdjustmentOrange=0,
   HueAdjustmentYellow=-19,
   HueAdjustmentGreen=-5,
   HueAdjustmentAqua=0,
   HueAdjustmentBlue=0,
   HueAdjustmentPurple=0,
   HueAdjustmentMagenta=15,
   SaturationAdjustmentRed=0,
   SaturationAdjustmentOrange=13,
   SaturationAdjustmentYellow=38,
   SaturationAdjustmentGreen=-10,
   SaturationAdjustmentAqua=-25,
   SaturationAdjustmentBlue=-20,
   SaturationAdjustmentPurple=-15,
   SaturationAdjustmentMagenta=-20,
   LuminanceAdjustmentRed=-35,
   LuminanceAdjustmentOrange=15,
   LuminanceAdjustmentYellow=-10,
   LuminanceAdjustmentGreen=-25,
   LuminanceAdjustmentAqua=-5,
   LuminanceAdjustmentBlue=-25,
   LuminanceAdjustmentPurple=10,
   LuminanceAdjustmentMagenta=-20,
   SplitToningShadowHue=57,
   SplitToningShadowSaturation=21,
   SplitToningHighlightHue=59,
   SplitToningHighlightSaturation=10,
   SplitToningBalance=0,
   ColorGradeMidtoneHue=0,
   ColorGradeMidtoneSat=0,
   ColorGradeShadowLum=0,
   ColorGradeMidtoneLum=0,
   ColorGradeHighlightLum=0,
   ColorGradeBlending=100,
   ColorGradeGlobalHue=0,
   ColorGradeGlobalSat=0,
   ColorGradeGlobalLum=0,
   AutoLateralCA=1,
   LensProfileEnable=1,
   LensManualDistortionAmount=0,
   VignetteAmount=0,
   DefringePurpleAmount=0,
   DefringePurpleHueLo=30,
   DefringePurpleHueHi=70,
   DefringeGreenAmount=0,
   DefringeGreenHueLo=40,
   DefringeGreenHueHi=60,
   GrainAmount=13,
   GrainSize=25,
   GrainFrequency=50,
   PostCropVignetteAmount=0,
   ShadowTint=0,
   RedHue=20,
   RedSaturation=0,
   GreenHue=-15,
   GreenSaturation=0,
   BlueHue=-5,
   BlueSaturation=0,
   ConvertToGrayscale=false,
   OverrideLookVignette=false,
   ToneCurveName2012="Custom",
   CameraProfile="Default Color",
   LensProfileSetup="LensDefaults",
   HasSettings=true,
   ToneCurvePV2012 = {
     1,
      35,
     57,
      79,
     177,
      160,
     255,
      208,
   },
   ToneCurvePV2012Red = {
     0,
      0,
     52,
      17,
     123,
      124,
     217,
      225,
     255,
      253,
   },
   ToneCurvePV2012Green = {
     0,
      7,
     45,
      25,
     121,
      120,
     150,
      164,
     187,
      198,
     229,
      231,
     255,
      255,
   },
   ToneCurvePV2012Blue = {
     0,
      0,
     47,
      25,
     115,
      125,
     190,
      219,
     255,
      252,
   },
  
}

},version = 0,
}

