Disposable_Presets_LR/fuji/Fuji.lrtemplate
s = { 
  id = "",
  internalName = "Fuji",
  title = "Fuji",
  type = "Develop",
  value = { 
    settings = {
			GradientBasedCorrections = {
				{
					CorrectionActive = true,
					CorrectionAmount = 1,
					CorrectionID = "47F673A9-6470-434B-98FD-FCABE60901D3",
					CorrectionMasks = {
						{
							FullX = 0.000000,
							FullY = 0.000000,
							MaskID = "48ECCC80-95FE-4C67-A393-4996059CFA16",
							MaskValue = 1,
							What = "Mask/Gradient",
							ZeroX = 0.000000,
							ZeroY = 0.000000,
						},
					},
					CorrectionRangeMask = {
						ColorAmount = 0.000000,
						LumFeather = 0.000000,
						LumMax = 1,
						LumMin = 0,
						Type = 0,
						Version = 2,
					},
					CorrectionReferenceX = 0.000000,
					CorrectionReferenceY = 0.000000,
					LocalBrightness = 0,
					LocalClarity = 0,
					LocalClarity2012 = 0,
					LocalContrast = 0,
					LocalContrast2012 = 0.000000,
					LocalExposure = 0,
					LocalExposure2012 = 0.000000,
					LocalHighlights2012 = 0.000000,
					LocalLuminanceNoise = 0,
					LocalMoire = 0,
					LocalSaturation = 0,
					LocalShadows2012 = 0.000000,
					LocalSharpness = 0,
					LocalTemperature = 0.000000,
					LocalTint = 0,
					LocalToningHue = 0,
					LocalToningSaturation = 0,
					LocalWhites2012 = 0.000000,
					What = "Correction",
				},
			},

			CircularGradientBasedCorrections = {
				{
					CorrectionActive = true,
					CorrectionAmount = 1,
					CorrectionID = "FDFA3DE5-7EDE-4193-948A-5DBD62DD98CD",
					CorrectionMasks = {
						{
							Angle = 0,
							Bottom = 0.000000,
							Feather = 0,
							Flipped = true,
							Left = 0.000000,
							MaskID = "49542C7F-6A62-4F02-81E3-72271ADC945E",
							MaskValue = 1,
							Midpoint = 50,
							Right = 0.000000,
							Roundness = 0,
							Top = 0.000000,
							Version = 2,
							What = "Mask/CircularGradient",
						},
					},
					CorrectionRangeMask = {
						ColorAmount = 0.000000,
						LumFeather = 0.000000,
						LumMax = 1,
						LumMin = 0,
						Type = 0,
						Version = 2,
					},
					CorrectionReferenceX = 0.000000,
					CorrectionReferenceY = 0.000000,
					LocalBlacks2012 = 0,
					LocalBrightness = 0,
					LocalClarity = 0,
					LocalClarity2012 = 0.000000,
					LocalContrast = 0,
					LocalContrast2012 = 0.000000,
					LocalDefringe = 0,
					LocalDehaze = 0.000000,
					LocalExposure = 0,
					LocalExposure2012 = 0.000000,
					LocalHighlights2012 = 0.000000,
					LocalLuminanceNoise = 0,
					LocalMoire = 0,
					LocalSaturation = 0,
					LocalShadows2012 = 0.000000,
					LocalSharpness = 0,
					LocalTemperature = 0,
					LocalTint = 0,
					LocalToningHue = 0,
					LocalToningSaturation = 0,
					LocalWhites2012 = 0,
					What = "Correction",
				},
			},

   PresetType="Normal",
   Cluster="",
   SupportsAmount=false,
   SupportsColor=true,
   SupportsMonochrome=true,
   SupportsHighDynamicRange=true,
   SupportsNormalDynamicRange=true,
   SupportsSceneReferred=true,
   SupportsOutputReferred=true,
   ProcessVersion = "10.0",
   WhiteBalance="As Shot",
   IncrementalTemperature=0,
   IncrementalTint=0,
   Exposure2012=0.00,
   Contrast2012=0,
   Highlights2012=-35,
   Shadows2012=35,
   Whites2012=-13,
   Blacks2012=40,
   Texture=0,
   Clarity2012=0,
   Dehaze=0,
   Vibrance=0,
   Saturation=0,
   ParametricShadows=0,
   ParametricDarks=0,
   ParametricLights=0,
   ParametricHighlights=0,
   ParametricShadowSplit=24,
   ParametricMidtoneSplit=51,
   ParametricHighlightSplit=76,
   Sharpness=0,
   LuminanceSmoothing=0,
   ColorNoiseReduction=0,
   HueAdjustmentRed=0,
   HueAdjustmentOrange=0,
   HueAdjustmentYellow=0,
   HueAdjustmentGreen=-8,
   HueAdjustmentAqua=0,
   HueAdjustmentBlue=8,
   HueAdjustmentPurple=0,
   HueAdjustmentMagenta=0,
   SaturationAdjustmentRed=0,
   SaturationAdjustmentOrange=-3,
   SaturationAdjustmentYellow=0,
   SaturationAdjustmentGreen=0,
   SaturationAdjustmentAqua=0,
   SaturationAdjustmentBlue=-64,
   SaturationAdjustmentPurple=-57,
   SaturationAdjustmentMagenta=0,
   LuminanceAdjustmentRed=-15,
   LuminanceAdjustmentOrange=-5,
   LuminanceAdjustmentYellow=0,
   LuminanceAdjustmentGreen=0,
   LuminanceAdjustmentAqua=0,
   LuminanceAdjustmentBlue=0,
   LuminanceAdjustmentPurple=0,
   LuminanceAdjustmentMagenta=0,
   SplitToningShadowHue=2,
   SplitToningShadowSaturation=0,
   SplitToningHighlightHue=1,
   SplitToningHighlightSaturation=0,
   SplitToningBalance=-1,
   ColorGradeMidtoneHue=0,
   ColorGradeMidtoneSat=0,
   ColorGradeShadowLum=0,
   ColorGradeMidtoneLum=0,
   ColorGradeHighlightLum=0,
   ColorGradeBlending=50,
   ColorGradeGlobalHue=0,
   ColorGradeGlobalSat=0,
   ColorGradeGlobalLum=0,
   AutoLateralCA=0,
   LensProfileEnable=0,
   LensManualDistortionAmount=0,
   VignetteAmount=0,
   DefringePurpleAmount=0,
   DefringePurpleHueLo=30,
   DefringePurpleHueHi=70,
   DefringeGreenAmount=0,
   DefringeGreenHueLo=40,
   DefringeGreenHueHi=60,
   GrainAmount=0,
   PostCropVignetteAmount=0,
   ShadowTint=0,
   RedHue=15,
   RedSaturation=-8,
   GreenHue=-8,
   GreenSaturation=-15,
   BlueHue=5,
   BlueSaturation=-10,
   ConvertToGrayscale=false,
   OverrideLookVignette=false,
   ToneCurveName2012="Custom",
   CameraProfile="Default Color",
   HasSettings=true,
   ToneCurvePV2012 = {
     0,
      35,
     25,
      44,
     52,
      64,
     117,
      124,
     188,
      194,
     255,
      255,
   },
   ToneCurvePV2012Red = {
     0,
      10,
     40,
      32,
     85,
      71,
     115,
      108,
     168,
      171,
     255,
      252,
   },
   ToneCurvePV2012Green = {
     0,
      8,
     39,
      30,
     87,
      73,
     116,
      110,
     165,
      169,
     210,
      214,
     255,
      255,
   },
   ToneCurvePV2012Blue = {
     0,
      0,
     43,
      26,
     91,
      67,
     115,
      103,
     165,
      168,
     255,
      255,
   },
  
}

},version = 0,
}

