Disposable_Presets_LR/DC_03_Beach_Washed.xmp
<x:xmpmeta xmlns:x="adobe:ns:meta/" x:xmptk="Adobe XMP Core 7.0-c000 1.000000, 0000/00/00-00:00:00">
 <rdf:RDF xmlns:rdf="http://www.w3.org/1999/02/22-rdf-syntax-ns#">
  <rdf:Description rdf:about="" xmlns:crs="http://ns.adobe.com/camera-raw-settings/1.0/"
   crs:Version="17.2" crs:ProcessVersion="15.4"
   crs:WhiteBalance="Custom"
   crs:IncrementalTemperature="+5" crs:IncrementalTint="-3"
   crs:Exposure2012="+0.50" crs:Contrast2012="-5"
   crs:Highlights2012="+35" crs:Shadows2012="+28"
   crs:Whites2012="+40" crs:Blacks2012="+18"
   crs:Texture="-10" crs:Clarity2012="-12" crs:Dehaze="-5"
   crs:Vibrance="-10" crs:Saturation="-8"
   crs:HueAdjustmentRed="0" crs:HueAdjustmentOrange="-5" crs:HueAdjustmentYellow="-8" crs:HueAdjustmentGreen="+5" crs:HueAdjustmentAqua="+5" crs:HueAdjustmentBlue="+5" crs:HueAdjustmentPurple="0" crs:HueAdjustmentMagenta="0"
   crs:SaturationAdjustmentRed="-5" crs:SaturationAdjustmentOrange="-10" crs:SaturationAdjustmentYellow="-8" crs:SaturationAdjustmentGreen="-5" crs:SaturationAdjustmentAqua="0" crs:SaturationAdjustmentBlue="+5" crs:SaturationAdjustmentPurple="-5" crs:SaturationAdjustmentMagenta="-5"
   crs:LuminanceAdjustmentRed="+8" crs:LuminanceAdjustmentOrange="+10" crs:LuminanceAdjustmentYellow="+10" crs:LuminanceAdjustmentGreen="+8" crs:LuminanceAdjustmentAqua="+5" crs:LuminanceAdjustmentBlue="+5" crs:LuminanceAdjustmentPurple="+5" crs:LuminanceAdjustmentMagenta="+8"
   crs:SplitToningShadowHue="50" crs:SplitToningShadowSaturation="6" crs:SplitToningHighlightHue="55" crs:SplitToningHighlightSaturation="5" crs:SplitToningBalance="+8"
   crs:ColorGradeMidtoneHue="0" crs:ColorGradeMidtoneSat="0" crs:ColorGradeShadowHue="50" crs:ColorGradeShadowSat="6" crs:ColorGradeHighlightHue="55" crs:ColorGradeHighlightSat="5"
   crs:ColorGradeShadowLum="0" crs:ColorGradeMidtoneLum="0" crs:ColorGradeHighlightLum="0" crs:ColorGradeBlending="50"
   crs:Sharpness="20" crs:SharpeningRadius="1.0" crs:SharpeningDetail="20" crs:SharpeningMasking="40"
   crs:LuminanceSmoothing="0" crs:LuminanceNoiseReductionDetail="50" crs:ColorNoiseReduction="10" crs:ColorNoiseReductionDetail="50"
   crs:GrainAmount="32" crs:GrainSize="45" crs:GrainFrequency="65"
   crs:PostCropVignetteAmount="-18" crs:PostCropVignetteMidpoint="40" crs:PostCropVignetteFeather="60" crs:PostCropVignetteRoundness="-20" crs:PostCropVignetteStyle="1"
   crs:ToneCurveName2012="Custom" crs:CameraProfile="Embedded" crs:HasSettings="True">
   <crs:ToneCurvePV2012>
     <rdf:Seq>
          <rdf:li>0, 20</rdf:li>
          <rdf:li>55, 80</rdf:li>
          <rdf:li>128, 148</rdf:li>
          <rdf:li>195, 210</rdf:li>
          <rdf:li>255, 255</rdf:li>
     </rdf:Seq>
   </crs:ToneCurvePV2012>
   <crs:ToneCurvePV2012Red>
     <rdf:Seq>
          <rdf:li>0, 15</rdf:li>
          <rdf:li>128, 136</rdf:li>
          <rdf:li>255, 254</rdf:li>
     </rdf:Seq>
   </crs:ToneCurvePV2012Red>
   <crs:ToneCurvePV2012Green>
     <rdf:Seq>
          <rdf:li>0, 15</rdf:li>
          <rdf:li>128, 134</rdf:li>
          <rdf:li>255, 252</rdf:li>
     </rdf:Seq>
   </crs:ToneCurvePV2012Green>
   <crs:ToneCurvePV2012Blue>
     <rdf:Seq>
          <rdf:li>0, 15</rdf:li>
          <rdf:li>128, 130</rdf:li>
          <rdf:li>255, 248</rdf:li>
     </rdf:Seq>
   </crs:ToneCurvePV2012Blue>
   <crs:Name><rdf:Alt><rdf:li xml:lang="x-default">03 - Beach Washed</rdf:li></rdf:Alt></crs:Name>
   <crs:Group><rdf:Alt><rdf:li xml:lang="x-default">Disposable Camera Pack</rdf:li></rdf:Alt></crs:Group>
  </rdf:Description>
 </rdf:RDF>
</x:xmpmeta>
