Disposable_Presets_LR/DC_05_90s_Compact.xmp
<x:xmpmeta xmlns:x="adobe:ns:meta/" x:xmptk="Adobe XMP Core 7.0-c000 1.000000, 0000/00/00-00:00:00">
 <rdf:RDF xmlns:rdf="http://www.w3.org/1999/02/22-rdf-syntax-ns#">
  <rdf:Description rdf:about="" xmlns:crs="http://ns.adobe.com/camera-raw-settings/1.0/"
   crs:Version="17.2" crs:ProcessVersion="15.4"
   crs:WhiteBalance="Custom"
   crs:IncrementalTemperature="+8" crs:IncrementalTint="+5"
   crs:Exposure2012="+0.20" crs:Contrast2012="+20"
   crs:Highlights2012="+18" crs:Shadows2012="+15"
   crs:Whites2012="+22" crs:Blacks2012="+10"
   crs:Texture="-5" crs:Clarity2012="-8" crs:Dehaze="0"
   crs:Vibrance="+10" crs:Saturation="+8"
   crs:HueAdjustmentRed="+3" crs:HueAdjustmentOrange="-5" crs:HueAdjustmentYellow="-8" crs:HueAdjustmentGreen="-5" crs:HueAdjustmentAqua="+3" crs:HueAdjustmentBlue="+5" crs:HueAdjustmentPurple="0" crs:HueAdjustmentMagenta="+3"
   crs:SaturationAdjustmentRed="+10" crs:SaturationAdjustmentOrange="+5" crs:SaturationAdjustmentYellow="+5" crs:SaturationAdjustmentGreen="+8" crs:SaturationAdjustmentAqua="+5" crs:SaturationAdjustmentBlue="+10" crs:SaturationAdjustmentPurple="+5" crs:SaturationAdjustmentMagenta="+8"
   crs:LuminanceAdjustmentRed="+5" crs:LuminanceAdjustmentOrange="+8" crs:LuminanceAdjustmentYellow="+8" crs:LuminanceAdjustmentGreen="+3" crs:LuminanceAdjustmentAqua="+3" crs:LuminanceAdjustmentBlue="+3" crs:LuminanceAdjustmentPurple="0" crs:LuminanceAdjustmentMagenta="+3"
   crs:SplitToningShadowHue="38" crs:SplitToningShadowSaturation="10" crs:SplitToningHighlightHue="42" crs:SplitToningHighlightSaturation="8" crs:SplitToningBalance="+5"
   crs:ColorGradeMidtoneHue="0" crs:ColorGradeMidtoneSat="0" crs:ColorGradeShadowHue="38" crs:ColorGradeShadowSat="10" crs:ColorGradeHighlightHue="42" crs:ColorGradeHighlightSat="8"
   crs:ColorGradeShadowLum="0" crs:ColorGradeMidtoneLum="0" crs:ColorGradeHighlightLum="0" crs:ColorGradeBlending="50"
   crs:Sharpness="20" crs:SharpeningRadius="1.0" crs:SharpeningDetail="20" crs:SharpeningMasking="40"
   crs:LuminanceSmoothing="0" crs:LuminanceNoiseReductionDetail="50" crs:ColorNoiseReduction="10" crs:ColorNoiseReductionDetail="50"
   crs:GrainAmount="40" crs:GrainSize="50" crs:GrainFrequency="72"
   crs:PostCropVignetteAmount="-30" crs:PostCropVignetteMidpoint="40" crs:PostCropVignetteFeather="60" crs:PostCropVignetteRoundness="-20" crs:PostCropVignetteStyle="1"
   crs:ToneCurveName2012="Custom" crs:CameraProfile="Embedded" crs:HasSettings="True">
   <crs:ToneCurvePV2012>
     <rdf:Seq>
          <rdf:li>0, 12</rdf:li>
          <rdf:li>52, 70</rdf:li>
          <rdf:li>128, 138</rdf:li>
          <rdf:li>195, 204</rdf:li>
          <rdf:li>255, 254</rdf:li>
     </rdf:Seq>
   </crs:ToneCurvePV2012>
   <crs:ToneCurvePV2012Red>
     <rdf:Seq>
          <rdf:li>0, 10</rdf:li>
          <rdf:li>128, 134</rdf:li>
          <rdf:li>255, 253</rdf:li>
     </rdf:Seq>
   </crs:ToneCurvePV2012Red>
   <crs:ToneCurvePV2012Green>
     <rdf:Seq>
          <rdf:li>0, 8</rdf:li>
          <rdf:li>128, 130</rdf:li>
          <rdf:li>255, 250</rdf:li>
     </rdf:Seq>
   </crs:ToneCurvePV2012Green>
   <crs:ToneCurvePV2012Blue>
     <rdf:Seq>
          <rdf:li>0, 6</rdf:li>
          <rdf:li>128, 124</rdf:li>
          <rdf:li>255, 244</rdf:li>
     </rdf:Seq>
   </crs:ToneCurvePV2012Blue>
   <crs:Name><rdf:Alt><rdf:li xml:lang="x-default">05 - 90s Compact</rdf:li></rdf:Alt></crs:Name>
   <crs:Group><rdf:Alt><rdf:li xml:lang="x-default">Disposable Camera Pack</rdf:li></rdf:Alt></crs:Group>
  </rdf:Description>
 </rdf:RDF>
</x:xmpmeta>
