Disposable_Presets_LR/DC_02_Party_Night_Flash.xmp
<x:xmpmeta xmlns:x="adobe:ns:meta/" x:xmptk="Adobe XMP Core 7.0-c000 1.000000, 0000/00/00-00:00:00">
 <rdf:RDF xmlns:rdf="http://www.w3.org/1999/02/22-rdf-syntax-ns#">
  <rdf:Description rdf:about="" xmlns:crs="http://ns.adobe.com/camera-raw-settings/1.0/"
   crs:Version="17.2" crs:ProcessVersion="15.4"
   crs:WhiteBalance="Custom"
   crs:IncrementalTemperature="-4" crs:IncrementalTint="+6"
   crs:Exposure2012="+0.25" crs:Contrast2012="+22"
   crs:Highlights2012="+25" crs:Shadows2012="+15"
   crs:Whites2012="+30" crs:Blacks2012="+8"
   crs:Texture="-8" crs:Clarity2012="-10" crs:Dehaze="0"
   crs:Vibrance="+15" crs:Saturation="+10"
   crs:HueAdjustmentRed="+5" crs:HueAdjustmentOrange="-6" crs:HueAdjustmentYellow="-8" crs:HueAdjustmentGreen="-5" crs:HueAdjustmentAqua="+5" crs:HueAdjustmentBlue="+8" crs:HueAdjustmentPurple="+5" crs:HueAdjustmentMagenta="+8"
   crs:SaturationAdjustmentRed="+12" crs:SaturationAdjustmentOrange="-8" crs:SaturationAdjustmentYellow="-10" crs:SaturationAdjustmentGreen="+8" crs:SaturationAdjustmentAqua="+5" crs:SaturationAdjustmentBlue="+18" crs:SaturationAdjustmentPurple="+10" crs:SaturationAdjustmentMagenta="+12"
   crs:LuminanceAdjustmentRed="+5" crs:LuminanceAdjustmentOrange="+5" crs:LuminanceAdjustmentYellow="+5" crs:LuminanceAdjustmentGreen="0" crs:LuminanceAdjustmentAqua="0" crs:LuminanceAdjustmentBlue="+3" crs:LuminanceAdjustmentPurple="+3" crs:LuminanceAdjustmentMagenta="+5"
   crs:SplitToningShadowHue="240" crs:SplitToningShadowSaturation="8" crs:SplitToningHighlightHue="345" crs:SplitToningHighlightSaturation="6" crs:SplitToningBalance="+5"
   crs:ColorGradeMidtoneHue="0" crs:ColorGradeMidtoneSat="0" crs:ColorGradeShadowHue="240" crs:ColorGradeShadowSat="8" crs:ColorGradeHighlightHue="345" crs:ColorGradeHighlightSat="6"
   crs:ColorGradeShadowLum="0" crs:ColorGradeMidtoneLum="0" crs:ColorGradeHighlightLum="0" crs:ColorGradeBlending="50"
   crs:Sharpness="20" crs:SharpeningRadius="1.0" crs:SharpeningDetail="20" crs:SharpeningMasking="40"
   crs:LuminanceSmoothing="0" crs:LuminanceNoiseReductionDetail="50" crs:ColorNoiseReduction="10" crs:ColorNoiseReductionDetail="50"
   crs:GrainAmount="45" crs:GrainSize="52" crs:GrainFrequency="75"
   crs:PostCropVignetteAmount="-38" crs:PostCropVignetteMidpoint="40" crs:PostCropVignetteFeather="60" crs:PostCropVignetteRoundness="-20" crs:PostCropVignetteStyle="1"
   crs:ToneCurveName2012="Custom" crs:CameraProfile="Embedded" crs:HasSettings="True">
   <crs:ToneCurvePV2012>
     <rdf:Seq>
          <rdf:li>0, 10</rdf:li>
          <rdf:li>50, 65</rdf:li>
          <rdf:li>128, 142</rdf:li>
          <rdf:li>200, 215</rdf:li>
          <rdf:li>255, 255</rdf:li>
     </rdf:Seq>
   </crs:ToneCurvePV2012>
   <crs:ToneCurvePV2012Red>
     <rdf:Seq>
          <rdf:li>0, 8</rdf:li>
          <rdf:li>128, 131</rdf:li>
          <rdf:li>255, 254</rdf:li>
     </rdf:Seq>
   </crs:ToneCurvePV2012Red>
   <crs:ToneCurvePV2012Green>
     <rdf:Seq>
          <rdf:li>0, 8</rdf:li>
          <rdf:li>128, 129</rdf:li>
          <rdf:li>255, 250</rdf:li>
     </rdf:Seq>
   </crs:ToneCurvePV2012Green>
   <crs:ToneCurvePV2012Blue>
     <rdf:Seq>
          <rdf:li>0, 10</rdf:li>
          <rdf:li>128, 132</rdf:li>
          <rdf:li>255, 255</rdf:li>
     </rdf:Seq>
   </crs:ToneCurvePV2012Blue>
   <crs:Name><rdf:Alt><rdf:li xml:lang="x-default">02 - Party Night Flash</rdf:li></rdf:Alt></crs:Name>
   <crs:Group><rdf:Alt><rdf:li xml:lang="x-default">Disposable Camera Pack</rdf:li></rdf:Alt></crs:Group>
  </rdf:Description>
 </rdf:RDF>
</x:xmpmeta>
