Disposable_Presets_LR/DC_04_Expired_Film.xmp
<x:xmpmeta xmlns:x="adobe:ns:meta/" x:xmptk="Adobe XMP Core 7.0-c000 1.000000, 0000/00/00-00:00:00">
 <rdf:RDF xmlns:rdf="http://www.w3.org/1999/02/22-rdf-syntax-ns#">
  <rdf:Description rdf:about="" xmlns:crs="http://ns.adobe.com/camera-raw-settings/1.0/"
   crs:Version="17.2" crs:ProcessVersion="15.4"
   crs:WhiteBalance="Custom"
   crs:IncrementalTemperature="+10" crs:IncrementalTint="+12"
   crs:Exposure2012="+0.10" crs:Contrast2012="+15"
   crs:Highlights2012="+10" crs:Shadows2012="+18"
   crs:Whites2012="+15" crs:Blacks2012="+15"
   crs:Texture="-5" crs:Clarity2012="-5" crs:Dehaze="0"
   crs:Vibrance="+8" crs:Saturation="+5"
   crs:HueAdjustmentRed="+10" crs:HueAdjustmentOrange="+8" crs:HueAdjustmentYellow="-5" crs:HueAdjustmentGreen="-8" crs:HueAdjustmentAqua="-5" crs:HueAdjustmentBlue="+10" crs:HueAdjustmentPurple="+15" crs:HueAdjustmentMagenta="+12"
   crs:SaturationAdjustmentRed="+15" crs:SaturationAdjustmentOrange="+5" crs:SaturationAdjustmentYellow="-12" crs:SaturationAdjustmentGreen="-15" crs:SaturationAdjustmentAqua="-10" crs:SaturationAdjustmentBlue="+8" crs:SaturationAdjustmentPurple="+12" crs:SaturationAdjustmentMagenta="+15"
   crs:LuminanceAdjustmentRed="+5" crs:LuminanceAdjustmentOrange="+3" crs:LuminanceAdjustmentYellow="-5" crs:LuminanceAdjustmentGreen="-8" crs:LuminanceAdjustmentAqua="-5" crs:LuminanceAdjustmentBlue="0" crs:LuminanceAdjustmentPurple="+3" crs:LuminanceAdjustmentMagenta="+5"
   crs:SplitToningShadowHue="340" crs:SplitToningShadowSaturation="14" crs:SplitToningHighlightHue="20" crs:SplitToningHighlightSaturation="10" crs:SplitToningBalance="+5"
   crs:ColorGradeMidtoneHue="0" crs:ColorGradeMidtoneSat="0" crs:ColorGradeShadowHue="340" crs:ColorGradeShadowSat="14" crs:ColorGradeHighlightHue="20" crs:ColorGradeHighlightSat="10"
   crs:ColorGradeShadowLum="0" crs:ColorGradeMidtoneLum="0" crs:ColorGradeHighlightLum="0" crs:ColorGradeBlending="50"
   crs:Sharpness="20" crs:SharpeningRadius="1.0" crs:SharpeningDetail="20" crs:SharpeningMasking="40"
   crs:LuminanceSmoothing="0" crs:LuminanceNoiseReductionDetail="50" crs:ColorNoiseReduction="10" crs:ColorNoiseReductionDetail="50"
   crs:GrainAmount="50" crs:GrainSize="55" crs:GrainFrequency="80"
   crs:PostCropVignetteAmount="-32" crs:PostCropVignetteMidpoint="40" crs:PostCropVignetteFeather="60" crs:PostCropVignetteRoundness="-20" crs:PostCropVignetteStyle="1"
   crs:ToneCurveName2012="Custom" crs:CameraProfile="Embedded" crs:HasSettings="True">
   <crs:ToneCurvePV2012>
     <rdf:Seq>
          <rdf:li>0, 18</rdf:li>
          <rdf:li>50, 68</rdf:li>
          <rdf:li>128, 138</rdf:li>
          <rdf:li>195, 202</rdf:li>
          <rdf:li>255, 252</rdf:li>
     </rdf:Seq>
   </crs:ToneCurvePV2012>
   <crs:ToneCurvePV2012Red>
     <rdf:Seq>
          <rdf:li>0, 15</rdf:li>
          <rdf:li>128, 138</rdf:li>
          <rdf:li>255, 255</rdf:li>
     </rdf:Seq>
   </crs:ToneCurvePV2012Red>
   <crs:ToneCurvePV2012Green>
     <rdf:Seq>
          <rdf:li>0, 10</rdf:li>
          <rdf:li>128, 126</rdf:li>
          <rdf:li>255, 246</rdf:li>
     </rdf:Seq>
   </crs:ToneCurvePV2012Green>
   <crs:ToneCurvePV2012Blue>
     <rdf:Seq>
          <rdf:li>0, 8</rdf:li>
          <rdf:li>128, 122</rdf:li>
          <rdf:li>255, 240</rdf:li>
     </rdf:Seq>
   </crs:ToneCurvePV2012Blue>
   <crs:Name><rdf:Alt><rdf:li xml:lang="x-default">04 - Expired Film</rdf:li></rdf:Alt></crs:Name>
   <crs:Group><rdf:Alt><rdf:li xml:lang="x-default">Disposable Camera Pack</rdf:li></rdf:Alt></crs:Group>
  </rdf:Description>
 </rdf:RDF>
</x:xmpmeta>
