Disposable_Presets_LR/DC_01_QuickSnap_Daylight.xmp
<x:xmpmeta xmlns:x="adobe:ns:meta/" x:xmptk="Adobe XMP Core 7.0-c000 1.000000, 0000/00/00-00:00:00">
 <rdf:RDF xmlns:rdf="http://www.w3.org/1999/02/22-rdf-syntax-ns#">
  <rdf:Description rdf:about="" xmlns:crs="http://ns.adobe.com/camera-raw-settings/1.0/"
   crs:Version="17.2" crs:ProcessVersion="15.4"
   crs:WhiteBalance="Custom"
   crs:IncrementalTemperature="-6" crs:IncrementalTint="-4"
   crs:Exposure2012="+0.15" crs:Contrast2012="+18"
   crs:Highlights2012="+15" crs:Shadows2012="+20"
   crs:Whites2012="+20" crs:Blacks2012="+12"
   crs:Texture="-5" crs:Clarity2012="-8" crs:Dehaze="0"
   crs:Vibrance="+12" crs:Saturation="+8"
   crs:HueAdjustmentRed="0" crs:HueAdjustmentOrange="-8" crs:HueAdjustmentYellow="-10" crs:HueAdjustmentGreen="-5" crs:HueAdjustmentAqua="+5" crs:HueAdjustmentBlue="+5" crs:HueAdjustmentPurple="0" crs:HueAdjustmentMagenta="0"
   crs:SaturationAdjustmentRed="+10" crs:SaturationAdjustmentOrange="-5" crs:SaturationAdjustmentYellow="-8" crs:SaturationAdjustmentGreen="+12" crs:SaturationAdjustmentAqua="+8" crs:SaturationAdjustmentBlue="+15" crs:SaturationAdjustmentPurple="+5" crs:SaturationAdjustmentMagenta="+5"
   crs:LuminanceAdjustmentRed="+3" crs:LuminanceAdjustmentOrange="-3" crs:LuminanceAdjustmentYellow="+5" crs:LuminanceAdjustmentGreen="+5" crs:LuminanceAdjustmentAqua="+3" crs:LuminanceAdjustmentBlue="+5" crs:LuminanceAdjustmentPurple="0" crs:LuminanceAdjustmentMagenta="+3"
   crs:SplitToningShadowHue="90" crs:SplitToningShadowSaturation="8" crs:SplitToningHighlightHue="60" crs:SplitToningHighlightSaturation="5" crs:SplitToningBalance="-5"
   crs:ColorGradeMidtoneHue="0" crs:ColorGradeMidtoneSat="0" crs:ColorGradeShadowHue="90" crs:ColorGradeShadowSat="8" crs:ColorGradeHighlightHue="60" crs:ColorGradeHighlightSat="5"
   crs:ColorGradeShadowLum="0" crs:ColorGradeMidtoneLum="0" crs:ColorGradeHighlightLum="0" crs:ColorGradeBlending="50"
   crs:Sharpness="20" crs:SharpeningRadius="1.0" crs:SharpeningDetail="20" crs:SharpeningMasking="40"
   crs:LuminanceSmoothing="0" crs:LuminanceNoiseReductionDetail="50" crs:ColorNoiseReduction="10" crs:ColorNoiseReductionDetail="50"
   crs:GrainAmount="38" crs:GrainSize="48" crs:GrainFrequency="68"
   crs:PostCropVignetteAmount="-28" crs:PostCropVignetteMidpoint="40" crs:PostCropVignetteFeather="60" crs:PostCropVignetteRoundness="-20" crs:PostCropVignetteStyle="1"
   crs:ToneCurveName2012="Custom" crs:CameraProfile="Embedded" crs:HasSettings="True">
   <crs:ToneCurvePV2012>
     <rdf:Seq>
          <rdf:li>0, 15</rdf:li>
          <rdf:li>55, 72</rdf:li>
          <rdf:li>128, 140</rdf:li>
          <rdf:li>195, 205</rdf:li>
          <rdf:li>255, 255</rdf:li>
     </rdf:Seq>
   </crs:ToneCurvePV2012>
   <crs:ToneCurvePV2012Red>
     <rdf:Seq>
          <rdf:li>0, 10</rdf:li>
          <rdf:li>128, 130</rdf:li>
          <rdf:li>255, 252</rdf:li>
     </rdf:Seq>
   </crs:ToneCurvePV2012Red>
   <crs:ToneCurvePV2012Green>
     <rdf:Seq>
          <rdf:li>0, 12</rdf:li>
          <rdf:li>128, 132</rdf:li>
          <rdf:li>255, 253</rdf:li>
     </rdf:Seq>
   </crs:ToneCurvePV2012Green>
   <crs:ToneCurvePV2012Blue>
     <rdf:Seq>
          <rdf:li>0, 10</rdf:li>
          <rdf:li>128, 128</rdf:li>
          <rdf:li>255, 248</rdf:li>
     </rdf:Seq>
   </crs:ToneCurvePV2012Blue>
   <crs:Name><rdf:Alt><rdf:li xml:lang="x-default">01 - QuickSnap Daylight</rdf:li></rdf:Alt></crs:Name>
   <crs:Group><rdf:Alt><rdf:li xml:lang="x-default">Disposable Camera Pack</rdf:li></rdf:Alt></crs:Group>
  </rdf:Description>
 </rdf:RDF>
</x:xmpmeta>
